X:1
T:Il limite ignoto
T:Durata approssimativa: 4 minuti
C:Il limite ignoto
Z:Durata approssimativa: 4 minuti
%%score [ 1 2 3 4 ]
L:1/8
Q:1/4=80
M:2/1
K:C
V:1 treble stafflines=1 nm="S." snm="S."
V:2 treble stafflines=1 nm="C." snm="C."
V:3 treble-8 transpose=-12 stafflines=1 nm="T." snm="T."
V:4 bass stafflines=1 nm="B." snm="B."
V:1
"^Andante" z16 | z16 | z16 |!mp!"^Parlato" B4 z4 B2 B2 B2 B2 | B4 B2 z6!<)!!<(!!>)!!>(! d4 | %5
w: |||Crux, mun- di be- ne-|di- ctio, Spes|
 z6 d2 (3d2 d2 c2 B4 | B2 z6 (3B4 B4 B4 | B3 B (3B2 B2 B2 G4 z4 | G2 G2 z4 G2 G2 GG G2 | z14 G2 | %10
w: et cer- ta re- dem-|ptio, O- lim ge-|hen- nae ba- iu- la, Nunc|cla- ra cae- li ia- nu- a,|In|
 G6 G2 G6 G2 | (3:2:2c4 A2 (3:2:2z4 B2 B4!<(! B4!<)! | B2 B2 z4!mf!!>(! !tenuto!d2!>)! c2 z4 | %13
w: te le- ua- tur|ho- stia, Ad se qui|tra- xit om- nia;|
 z4!mp! B4 B2 B2 z4 | B4 B4 (3B4 B4 B4 | (3G6 G4 G2 (G8 | G6!p! G2 G4 G4 | %17
w: Quam mun- di|prin- ceps im- pe- tit|Su- um- que ni-|hil in- ue- nit.|
"^Liberamente" E8 (3E4 E4 E4 | E4 E2 E2 E3 E E2 z2 | z16 | z8 F8 | E8 _E8 | %22
w: Tuae le- gis, tuae-|le- gis ar- ti- cu- lus||Ve-|* tus|
"^Andante"[Q:1/4=80] z16 | z16 | z14 A2 | G6 ^F2 G4 e4 | c3 c d3 c e4 d4 | ^d8 z8 | %28
w: ||chi-|ro- gra- phum An-|ti- qua per- it ser- ui-|tus,|
!fff!"^Enfatico""^Parlato" (3z4 B4 B4 B6 B2 | B4 !breath!B3!>(! B!>)! B8 |"^Beatamente" z16 | %31
w: Ve- ra li- ber-|tas red- di- tur!||
 z14 B2 | (3:2:2c4 B2 z4!<(! A2 B2 A2!<)! B2 |!>(! c4 B2!>)! z6 B4 | %34
w: O-|do- ris tu- i co- pia|Cun- cta uin-|
 B2 z4 B2 (3B2 A2 A2 !tenuto!c4 | A2 z6 (3B4 B4 B4 | !tenuto!c3 B (3c2 B2) B2 !breath!B2 B2 z4 | %37
w: cit a- ro- ma- ta, uin-|cit; Tu- i dul-|cen- do nec- ta- ris, tu- i,|
 B2 B2 z3 B B2 B2 BB B2 | z14 B2 |"^Moderato"[Q:1/4=100] B6 B2 B6 B2 | %40
w: Re- plet ar- ca- na pec- to- ris.|Per|cru- cem, Chri- ste,|
 (3B2 B2 B2 (3:2:2z4 B2 B4 B4 | B2 B2 z4 B2 B2 z4 | z4 B4 B2 B2 z4 | B4 B4 (3B4 B4 B4 | %44
w: quae- su- mus: Ad ui- tae|tran- sfer prae- mium,|Quos li- gni|fi- xus sti- pi- te|
 (3:2:2z8 B4 B4 B4 | B6 B2 B4 B4 | B6 B2 B4 B4 | B6 B2 B4 B4 | B6 B2 !tenuto!B4 !tenuto!B4 | %49
w: Di- gna- tus|es di- gna- tus|es, di- gna- tus|es di- gna- tus|es re- di- me-|
"^Instrument change"!<(! d16!<)! ||[K:D]!ff!"^Maestoso"[Q:1/4=70] d8 e6 e2 | %51
w: re.|Sit pa- tri|
 g6 e2!>(! d3 A!>)! B4 | z16 | z16 |!ff! f8 f4 e4 |!>(! d3 c d3 c!>)! B8 |!<(! G4 B4 c4!<)! c4 | %57
w: laus in- ge- ni- to|||Sit de- cus|u- ni- ge- ni- to|Sit, Sit, Sit, Sit|
!<(! B2 B2 c2 c2 d3 e!<)! f4 | g4 f8 e4- | e4 d4 B4 B3 B | _B8 A8 | _A8 G8 | =B8 c8 | (3d8 d8 d8 | %64
w: u- tri- u- sque pa- ri- li|Ma- ie- stas|_ sum- ma fla- mi-|ni. Ma-|ie- stas|sum- ma|fla- mi- ni.|
 d3 c e3 f d2 d2 z4 | d3 c e3 f d2 d2 z4 | d6 c2 e6 !breath!f2 | f16 |] %68
w: A- men. A- men. A- men.|A- men. A- men. A- men.|A- * men. A-|men.|
V:2
!mp!"^Parlato" B4 z4 B2 B2 B2 B2 | B4 B2 z6!>)!!>(!!<)!!<(! d4 | z6 d2 (3d2 d2 c2 B4 | %3
w: Crux, mun- di be- ne-|di- ctio, Spes|et cer- ta re- dem-|
 B2 z6 (3B4 B4 B4 | B3 B (3B2 B2 B2 G4 z4 | G2 G2 z4 G2 G2 GG G2 | z14 G2 | G6 G2 G6 G2 | %8
w: ptio, O- lim ge-|hen- nae ba- iu- la, Nunc|cla- ra cae- li ia- nu- a,|In|te le- ua- tur|
 (3:2:2c4 A2 (3:2:2z4 B2 B4!<(! B4!<)! | B2 B2 z4!mf! !tenuto!d2!>)!!>(! c2 z4 | %10
w: ho- stia, Ad se qui|tra- xit om- nia;|
 z4!mp! B4 B2 B2 z4 | B4 B4 (3B4 B4 B4 | (3G6 G4 G2 (G8 | G6) G2 G4 G4 |!sfz! d6 G2!p! G4 G4 | %15
w: Quam mun- di|prin- ceps im- pe- tit|Su- um- que ni-|hil in- ue- nit.|Ni- hil\_in- ue- nit.|
!sfz! (d6 G2)!p! G4 G4 |!sfz! (d6!p! G2) G4 G4 |"^Instrument change" E8 (3E4 E4 E4 | %18
w: Ni- hil\_in- ue- nit.|Ni- hil\_in- ue- nit.|Tuae le- gis ar-|
 E3 E E4 z4 D4- | D8 D8 | D12 D4 | E8 D8 | z16 | z6 F2 E6 ^D2 | E4 C4 B,3 B, C3 E | %25
w: ti- cu- lus Ve-|* tus|Ve- tus|Cas- sat||chi- ro- gra-|phum An- ti- qua pe- rit|
 G3 ^F G4 (3z4 B4 B4 | A6 B2 c4 B3 B | B8 z8 |!fff!"^Parlato" (3z4 B4 B4 B6 B2 | %29
w: ser- ui- tus, Ve- ra|li- ber- tas red- di-|tur,|Ve- ra li- ber-|
 B4 !breath!B3!>(! B B6!>)!!mp! !breath!B2 |!mf! (3:2:2c4 B2 z4!<(! A2 B2 A2!<)! B2 | %31
w: tas red- di- tur! O-|do- ris tu- i co- pia|
 c4!>(! B2!>)! z6 B4 | B2 z4 B2 (3B2 A2 A2 !tenuto!c4 | A2 z6 (3B4 B4 B4 | %34
w: Cun- cta uin-|cit a- ro- ma- ta, uin-|cit; Tu- i dul-|
 !tenuto!c3 B (3(c2 B2) B2 !breath!B2 B2 z4 | B2 B2 z3 B B2 B2 BB B2 | z14 B2 | B6 B2 B6 B2 | %38
w: cen- do nec- ta- ris, tu- i,|Re- plet ar- ca- na pec- to- ris.|Per|cru- cem, Chri- ste,|
 (3B2 B2 B2 (3:2:2z4 B2 B4 B4 | B2 B2 z4 B2 B2 z4 | z4 B4 B2 B2 z4 | B4 B4 (3B4 B4 B4 | %42
w: quae- su- mus: Ad ui- tae|tran- sfer prae- mium,|Quos li- gni|fi- xus sti- pi- te|
 (3:2:2z8 B4 B4 B4 | B6 B2 B4 B4 | B6 B2 B4 B4 | B6 B2 B4 B4 | B6 B2 B4 B4 | B6 B2 B4 B4 | %48
w: Di- gna- tus|es re- di- me-|re, di- gna- tus|es re- di- me-|re, di- gna- tus|es re- di- me-|
 B6 B2 !tenuto!B4 !tenuto!B4 |"^Instrument change"!<(! D16!<)! ||[K:D]!ff! A8 B4 ^c4 | %51
w: re, re- di- me-|re.|Sit pa- tri|
 A4 B4!>(! G2 B2!>)! G4 | z8!mf! D8 |!<(! E4 F4 G3 A!<)! B3 c | c8!<(! F6 FF | %55
w: laus in- ge- ni- to|Sit|de- cus u- ni- ge- ni-|to Sit u- tri-|
 G2 F2 D3 C!<)! D2 z2!f! F2 GA | B4 B4 B4 B4- | B2 B2 c4 c2 d4 d2 | c4 d4 G2 A4 G2 | %59
w: u- sque pa- ri- li, Ma- ie- *|stas sum- ma fla-|* mi- ni. Ma- ie- stas|sum- ma, Ma- ie- stas|
 F2 G4 A2 G4 A4 | =F4 E12- | E16- | E8 A8- | A12 F4 | D3 D G3 G A2 A2 z4 | D3 D G3 G A2 A2 z4 | %66
w: sum- ma fla- mi- ni.|Ma- *||* ie-|* stas,|A- men. A- men. A- men.|A- men. A- men. A- men.|
 D6 D2 G6 !breath!G2 | d16 |] %68
w: A- * men. A-|men.|
V:3
 z16 |!mp!"^Parlato" B4 z4 B2 B2 B2 B2 | B4 B2 z6!<)!!<(!!>)!!>(! d4 | z6 d2 (3d2 d2 c2 B4 | %4
w: |Crux, mun- di be- ne-|di- ctio, Spes|et cer- ta re- dem-|
 B2 z6 (3B4 B4 B4 | B3 B (3B2 B2 B2 G4 z4 | G2 G2 z4 G2 G2 GG G2 | z14 G2 | G6 G2 G6 G2 | %9
w: ptio, O- lim ge-|hen- nae ba- iu- la, Nunc|cla- ra cae- li ia- nu- a,|In|te le- ua- tur|
 (3:2:2c4 A2 (3:2:2z4 B2 B4!<(! B4!<)! | B2 B2 z4!mf! !tenuto!d2!>)!!>(! c2 z4 | %11
w: ho- stia, Ad se qui|tra- xit om- nia;|
 z4!mp! B4 B2 B2 z4 | B4 B4 (3B4 B4 B4 | (3G6 G4 G2 G8 | G6 G2 G4 G4 |!sfz! d6 G2!p! G4 G4 | %16
w: Quam mun- di|prin- ceps im- pe- tit|Su- um- que ni-|hil in- ue- nit.|Ni- hil\_in- ue- nit.|
!sfz! (d6!p! G2) G4 G4 |"^Instrument change" E,8 (3E,4 E,4 E,4 | E,3 E, E,4 z8 | z8 B,8 | %20
w: Ni- hil\_in- ue- nit.|Tuae le- gis ar-|ti- cu- lus|Ve-|
 B,4 B,12 | C8 C8 | z8 z2 A,2 G,4- | G,2 ^F,2 G,4 E,4 C,3 C, | D,3 F, A,3 A, G,2 G,2 B,2 C2 | %25
w: * tus|cas- sat|chi- ro-|* gra- phum; An- ti- qua|per- it ser- ui- tus, an- ti- qua|
 B,3 A,/A,/ (3z2 E2 E2 F3 E D2 D>D | (3C2 B,2 A,2 B,2 C2 D2 E4 E2 | ^F8 z8 | %28
w: ser- vi- tus, Ve- ra li- ber- tas red- di-|tur, ve- ra li- ber- tas red- di-|tur,|
!fff!"^Parlato" (3z4 B,4 B,4 B,6 B,2 | B,4 !breath!B,3!>(! B,!>)! B,8 | z6 B,2 (3:2:2C4 B,2 z4 | %31
w: Ve- ra li- ber-|tas red- di- tur!|O- do- ris|
!<(! A,2 B,2 A,2 B,2!<)! C4!>(! B,2!>)! z2 | z4 B,4 B,2 z4 B,2 | (3B,2 A,2 A,2 !tenuto!C4 A,2 z6 | %34
w: tu- i co- pia Cun- cta|uin- cit a-|ro- ma- ta, uin- cit;|
 (3B,4 B,4 B,4 !tenuto!C3 B, (3(C2 B,2) B,2 x2/3 | B,2 B,2 z4 B,2 B,2 z3 B, | B,2 B,2 B,B, B,2 z8 | %37
w: Tu- i dul- cen- do nec- ta- ris,|tu- i, Re- plet ar-|ca- na pec- to- ris.|
 z6 B,2 B,6 B,2 | B,6 B,2 (3B,2 B,2 B,2 (3:2:2z4 B,2 | B,4 B,4 B,2 B,2 z4 | B,2 B,2 z4 z4 B,4 | %41
w: Per cru- cem,|Chri- ste, quae- su- mus: Ad|ui- tae tran- sfer|prae- mium, Quos|
 B,2 B,2 z4 B,4 B,4 | (3B,4 B,4 B,4 (3:2:2z8 B,4 | B,4 B,4 B,6 B,2 | B,4 B,4 B,6 B,2 | %45
w: li- gni fi- xus|sti- pi- te Di-|gna- tus es re-|di- me- re, di-|
 B,4 B,4 B,6 B,2 | B,4 B,4 B,6 B,2 | B,4 B,4 B,6 B,2 | B,8 !tenuto!B,8 | %49
w: gna- tus es re-|di- me- re, di-|gna- tus es re-|di- me-|
"^Instrument change"!<(! D,16!<)! ||[K:D]!ff! F8 G6 A2 | E4 D4!>(! B,2 D2!>)! E4 | %52
w: re.|Sit pa- tri|laus in- ge- ni- to|
 z4!mf! A,8!<(! B,4 | C4 D3 E!<)! F3 E E4- | E4!<(! D6 DD E2 D2 | B,3 A,!<)! B,2!f! D3 D D2 D2 D2 | %56
w: Sit de-|cus u- ni- ge- ni- to|* Sit u- tri- u- sque|pa- ri- li, pa- ri- li, Ma- ie-|
 E8 E4 D4 | D6 C2 D4 D2 E2- | E4 D8 C4 | D4 D4 D4 ^D4 | =D4 =C4 ^C8 | D4 =C4 ^C8- | C8 G8 | %63
w: stas sum- ma|fla- mi- ni. Ma- ie-|* stas sum-|ma fla- mi- ni.|Ma- ie- stas,|Ma- ie- stas|_ sum-|
 E4 E4 D4 A,4 | B,3 C D3 E F2 F2 z4 | B,3 C D3 E F2 F2 z4 | B,6 C2 D6 !breath!C2 | D16 |] %68
w: ma fla- mi- ni.|A- men. A- men. A- men.|A- men. A- men. A- men.|A- * men. A-|men.|
V:4
 z16 | z16 |!mp!"^Parlato" D,4 z4 D,2 D,2 D,2 D,2 | D,4 D,2 z6!<)!!<(!!>)!!>(! F,4 | %4
w: ||Crux, mun- di be- ne-|di- ctio, Spes|
 z6 D,2 (3D,2 D,2 D,2 D,4 | D,2 z6 (3D,4 D,4 D,4 | D,3 D, (3D,2 D,2 D,2 B,,4 z4 | %7
w: et cer- ta re- dem-|ptio, O- lim ge-|hen- nae ba- iu- la, Nunc|
 B,,2 B,,2 z4 B,,2 B,,2 B,,B,, B,,2 | z14 B,,2 | B,,6 B,,2 B,,6 B,,2 | %10
w: cla- ra cae- li ia- nu- a,|In|te le- ua- tur|
 (3:2:2E,4 C,2 (3:2:2z4 D,2 D,4!<(! D,4!<)! | D,2 D,2 z4!mf!!>(! !tenuto!F,2!>)! E,2 z4 | %12
w: ho- stia, Ad se qui|tra- xit om- nia;|
 z4!mp! D,4 D,2 D,2 z4 | D,4 D,4 (3D,4 D,4 D,4 | (3B,,6 B,,4 B,,2 B,,8 | B,,6 B,,2 B,,4 B,,4 | %16
w: Quam mun- di|prin- ceps im- pe- tit|Su- um- que ni-|hil in- ue- nit.|
!sfz! F,6!p! B,,2 B,,4 B,,4 |"^Instrument change" E,8 (3E,4 E,4 E,4 | E,4 E,2 E,2 E,3 E, E,2 z2 | %19
w: Ni- hil\_in- ue- nit.|Tuae le- gis, tuae-|le- gis ar- ti- cu- lus|
 z16 | G,8 G,8 | G,8 F,8 | z2 F,2 =E,6 ^D,2 E,4 | C,4 B,,3 B,, C,3 E, G,3 F, | %24
w: |Ve- tus|cas- sat|chi- ro- gra- phum;|An- ti- qua pe- rit ser- ui-|
 E,4 z4 (3:2:2E,4 E,2 E,3 E, | E,2 z2 (3z2 C2 C2 D3 C B,2 G,>G, | %26
w: tus, Ve- ra li- ber-|tas ve- ra li- ber- tas red- di-|
 A,2- (3A,2 E,2 E,2 F,3 E, D,2 G,2 G,,2 | ^G,,8 z8 |!fff!"^Parlato" (3z4 D,4 D,4 D,6 D,2 | %29
w: tur _ ve- ra li- ber- tas red- di-|tur,|Ve- ra li- ber-|
 D,4 !breath!D,3!>(! D,!>)! D,8 | z14 D,2 | (3:2:2E,4 D,2 z4!<(! C,2 D,2 C,2!<)! D,2 | %32
w: tas red- di- tur!|O-|do- ris tu- i co- pia|
 D,4!>(! D,2!>)! z6 D,4 | D,2 z4 D,2 (3D,2 C,2 C,2 !tenuto!E,4 | C,2 z6 (3D,4 D,4 D,4 | %35
w: Cun- cta uin-|cit a- ro- ma- ta, uin-|cit; Tu- i dul-|
 !tenuto!E,3 D, (3E,2 D,2 D,2 !breath!D,2 D,2 z4 | D,2 D,2 z3 D, D,2 D,2 D,D, D,2 | z14 D,2 | %38
w: cen- do nec- ta- ris, tu- i,|Re- plet ar- ca- na pec- to- ris.|Per|
 D,6 D,2 D,6 D,2 | (3D,2 D,2 D,2 (3:2:2z4 D,2 D,4 D,4 | D,2 D,2 z4 D,2 D,2 z4 | z4 D,4 D,2 D,2 z4 | %42
w: cru- cem, Chri- ste,|quae- su- mus: Ad ui- tae|tran- sfer prae- mium,|Quos li- gni|
 D,4 D,4 (3D,4 D,4 D,4 | (3:2:2z8 D,4 D,4 D,4 | D,6 D,2 D,4 D,4 | D,6 D,2 D,4 D,4 | %46
w: fi- xus sti- pi- te|Di- gna- tus|es re- di- me-|re, di- gna- tus|
 D,6 D,2 D,4 D,4 | D,6 D,2 D,4 D,4 | D,6 D,2 !tenuto!D,4 !tenuto!D,4 | %49
w: es re- di- me-|re, di- gna- tus|es re- di- me-|
"^Instrument change"!<(! D,16!<)! ||[K:D]!ff! D8 D4 D4 | ^C6 B,2!>(! G,3 F,!>)! E,4 | %52
w: re.|Sit pa- tri|laus in- ge- ni- to|
!mf! D,8!<(! E,4 F,4 | G,3 A,!<)! B,3 C!<)!!<(! D8 |!ff! D4 D4 ^C6 B,2 |!>(! G,3 F, E,4!>)! D,8 | %56
w: Sit de- cus|u- ni- ge- ni- to|pa- tri laus in-|ge- ni- to, Sit|
!<(! E,2 E,2 F,2 F,2 G,3 A,!<)! B,4 |!<(! G,2 G,2 A,2 A,2 B,3 C!<)! D4 | ^A,4 B,4 B,,4 C,4 | %59
w: u- tri- u- sque pa- ri- li|u- tri- u- sque pa- ri- li|Ma- * ie- *|
 A,,4 B,,2 C,2 D,2 E,2 =F,2 ^F,2 | G,12 A,4 | _B,8 =B,8 | G,8 E,8 | F,8 F,8 | %64
w: stas sum- ma fla- * mi- ni.|Ma- ie-|stas sum-|ma fla-|mi- ni.|
 G,3 A, B,3 C D2 D2 z4 | G,3 A, B,3 C D2 D2 z4 | G,6 A,2 B,6 !breath!C,2 | D,16 |] %68
w: A- men. A- men. A- men.|A- men. A- men. A- men.|A- * men. A-|men.|

